static/img/kroki/1674b044120e8d58f0c75a76379b641c.svg

<?xml version="1.0" encoding="us-ascii" standalone="no"?><svg xmlns="http://www.w3.org/2000/svg" xmlns:xlink="http://www.w3.org/1999/xlink" contentStyleType="text/css" height="252px" preserveAspectRatio="none" style="width:279px;height:252px;" version="1.1" viewBox="0 0 279 252" width="279px" zoomAndPan="magnify"><defs/><g><!--class gcp_sql_database_instance--><g id="elem_gcp_sql_database_instance"><rect codeLine="22" fill="#3D176E" height="39.7891" id="gcp_sql_database_instance" rx="2.5" ry="2.5" style="stroke:#000D19;stroke-width:0.5;" width="265" x="7" y="106.79"/><ellipse cx="22" cy="126.6845" fill="#ADD1B2" rx="11" ry="11" style="stroke:#181818;stroke-width:1.0;"/><path d="M24.9688,132.3252 Q24.3906,132.622 23.75,132.7627 Q23.1094,132.9189 22.4063,132.9189 Q19.9063,132.9189 18.5781,131.2783 Q17.2656,129.622 17.2656,126.497 Q17.2656,123.372 18.5781,121.7158 Q19.9063,120.0595 22.4063,120.0595 Q23.1094,120.0595 23.75,120.2158 Q24.4063,120.372 24.9688,120.6689 L24.9688,123.3877 Q24.3438,122.8095 23.75,122.5439 Q23.1563,122.2627 22.5313,122.2627 Q21.1875,122.2627 20.5,123.3408 Q19.8125,124.4033 19.8125,126.497 Q19.8125,128.5908 20.5,129.6689 Q21.1875,130.7314 22.5313,130.7314 Q23.1563,130.7314 23.75,130.4658 Q24.3438,130.1845 24.9688,129.6064 L24.9688,132.3252 Z " fill="#000000"/><text fill="#D9B8FF" font-family="Helvetica" font-size="17" lengthAdjust="spacing" textLength="223" x="41" y="132.5698">gcp_sql_database_instance</text></g><!--class gcp_sql_operation--><g id="elem_gcp_sql_operation"><rect codeLine="24" fill="#3D176E" height="39.7891" id="gcp_sql_operation" rx="2.5" ry="2.5" style="stroke:#000D19;stroke-width:0.5;" width="191" x="44" y="206.58"/><ellipse cx="59" cy="226.4745" fill="#ADD1B2" rx="11" ry="11" style="stroke:#181818;stroke-width:1.0;"/><path d="M61.9688,232.1152 Q61.3906,232.412 60.75,232.5527 Q60.1094,232.7089 59.4063,232.7089 Q56.9063,232.7089 55.5781,231.0683 Q54.2656,229.412 54.2656,226.287 Q54.2656,223.162 55.5781,221.5058 Q56.9063,219.8495 59.4063,219.8495 Q60.1094,219.8495 60.75,220.0058 Q61.4063,220.162 61.9688,220.4589 L61.9688,223.1777 Q61.3438,222.5995 60.75,222.3339 Q60.1563,222.0527 59.5313,222.0527 Q58.1875,222.0527 57.5,223.1308 Q56.8125,224.1933 56.8125,226.287 Q56.8125,228.3808 57.5,229.4589 Q58.1875,230.5214 59.5313,230.5214 Q60.1563,230.5214 60.75,230.2558 Q61.3438,229.9745 61.9688,229.3964 L61.9688,232.1152 Z " fill="#000000"/><text fill="#D9B8FF" font-family="Helvetica" font-size="17" lengthAdjust="spacing" textLength="149" x="78" y="232.3598">gcp_sql_operation</text></g><!--class gcp_ssl_certificate--><g id="elem_gcp_ssl_certificate"><rect codeLine="26" fill="#3D176E" height="39.7891" id="gcp_ssl_certificate" rx="2.5" ry="2.5" style="stroke:#000D19;stroke-width:0.5;" width="192" x="43.5" y="7"/><ellipse cx="58.5" cy="26.8945" fill="#ADD1B2" rx="11" ry="11" style="stroke:#181818;stroke-width:1.0;"/><path d="M61.4688,32.5352 Q60.8906,32.832 60.25,32.9727 Q59.6094,33.1289 58.9063,33.1289 Q56.4063,33.1289 55.0781,31.4883 Q53.7656,29.832 53.7656,26.707 Q53.7656,23.582 55.0781,21.9258 Q56.4063,20.2695 58.9063,20.2695 Q59.6094,20.2695 60.25,20.4258 Q60.9063,20.582 61.4688,20.8789 L61.4688,23.5977 Q60.8438,23.0195 60.25,22.7539 Q59.6563,22.4727 59.0313,22.4727 Q57.6875,22.4727 57,23.5508 Q56.3125,24.6133 56.3125,26.707 Q56.3125,28.8008 57,29.8789 Q57.6875,30.9414 59.0313,30.9414 Q59.6563,30.9414 60.25,30.6758 Q60.8438,30.3945 61.4688,29.8164 L61.4688,32.5352 Z " fill="#000000"/><text fill="#D9B8FF" font-family="Helvetica" font-size="17" lengthAdjust="spacing" textLength="150" x="77.5" y="32.7798">gcp_ssl_certificate</text></g><!--link gcp_sql_database_instance to gcp_sql_operation--><g id="link_gcp_sql_database_instance_gcp_sql_operation"><path codeLine="28" d="M139.5,147.01 C139.5,162.28 139.5,183.71 139.5,200.32 " fill="none" id="gcp_sql_database_instance-to-gcp_sql_operation" style="stroke:#1A83AF;stroke-width:2.0;"/><polygon fill="#1A83AF" points="139.5,205.2,143.5,196.2,139.5,200.2,135.5,196.2,139.5,205.2" style="stroke:#1A83AF;stroke-width:2.0;"/></g><!--link gcp_ssl_certificate to gcp_sql_database_instance--><g id="link_gcp_ssl_certificate_gcp_sql_database_instance"><path codeLine="29" d="M139.5,47.22 C139.5,62.49 139.5,83.92 139.5,100.53 " fill="none" id="gcp_ssl_certificate-to-gcp_sql_database_instance" style="stroke:#1A83AF;stroke-width:2.0;"/><polygon fill="#1A83AF" points="139.5,105.41,143.5,96.41,139.5,100.41,135.5,96.41,139.5,105.41" style="stroke:#1A83AF;stroke-width:2.0;"/></g><!--SRC=[XP1FJm8n4CNlV8ecd4bODmfSJ5OIeXTYn9inczbs2WsxxJeT96ZyxeAeAIr_hlD-y-QzMHY50fkMDwB1faBo7RyqjWM2HXH4RZrsjIFHrHfqFeZ5YRDy4PX2W-8UwtTa8o4cdXT6BYrwBwu2wGxaSavkPTNUdWcitqfeEQ36DNXVC9EfLen163MgXbh7P6pQpLKskC44SwIGVf5-lw-oKOnSF7MszpynCnyeil1fKyUOn4nE_51dK-w886HIz4y_cV4Hb39sBgw3sTC-4rcaW_bi0SgjTxI6seTdF2EXuqsBuwGLZePA3ux23wTWkVkScCksz6zrgO2X0e-biPx1IXIVdQ-8SIqIi74srdnTIYGsUjkRzvkdVNiltQmOviNajNURMdUE6HvTIPo_0G00]--></g></svg>

<svg xmlns="http://www.w3.org/2000/svg" width="279" height="252" preserveAspectRatio="none" style="width:279px;height:252px"><rect width="265" height="39.789" x="7" y="106.79" fill="#3D176E" rx="2.5" ry="2.5" style="stroke:#000d19;stroke-width:.5"/><circle cx="22" cy="126.684" r="11" fill="#ADD1B2" style="stroke:#181818;stroke-width:1"/><path d="M24.969 132.325q-.578.297-1.219.438-.64.156-1.344.156-2.5 0-3.828-1.64-1.312-1.657-1.312-4.782t1.312-4.781q1.328-1.656 3.828-1.656.703 0 1.344.156.656.156 1.219.453v2.719q-.625-.579-1.219-.844-.594-.281-1.219-.281-1.343 0-2.031 1.078-.688 1.062-.688 3.156 0 2.094.688 3.172.688 1.062 2.031 1.062.625 0 1.219-.265.594-.281 1.219-.86v2.72Z"/><text x="41" y="132.57" fill="#D9B8FF" font-family="Helvetica" font-size="17" textLength="223">gcp_sql_database_instance</text><rect width="191" height="39.789" x="44" y="206.58" fill="#3D176E" rx="2.5" ry="2.5" style="stroke:#000d19;stroke-width:.5"/><circle cx="59" cy="226.475" r="11" fill="#ADD1B2" style="stroke:#181818;stroke-width:1"/><path d="M61.969 232.115q-.578.297-1.219.438-.64.156-1.344.156-2.5 0-3.828-1.64-1.312-1.657-1.312-4.782t1.312-4.781q1.328-1.656 3.828-1.656.703 0 1.344.156.656.156 1.219.453v2.719q-.625-.578-1.219-.844-.594-.281-1.219-.281-1.343 0-2.031 1.078-.688 1.062-.688 3.156 0 2.094.688 3.172.688 1.062 2.031 1.062.625 0 1.219-.265.594-.281 1.219-.86v2.72Z"/><text x="78" y="232.36" fill="#D9B8FF" font-family="Helvetica" font-size="17" textLength="149">gcp_sql_operation</text><rect width="192" height="39.789" x="43.5" y="7" fill="#3D176E" rx="2.5" ry="2.5" style="stroke:#000d19;stroke-width:.5"/><circle cx="58.5" cy="26.895" r="11" fill="#ADD1B2" style="stroke:#181818;stroke-width:1"/><path d="M61.469 32.535q-.578.297-1.219.438-.64.156-1.344.156-2.5 0-3.828-1.64-1.312-1.657-1.312-4.782t1.312-4.781q1.328-1.656 3.828-1.656.703 0 1.344.156.656.156 1.219.453v2.719q-.625-.578-1.219-.844-.594-.281-1.219-.281-1.343 0-2.031 1.078-.688 1.062-.688 3.156 0 2.094.688 3.172.688 1.062 2.031 1.062.625 0 1.219-.265.594-.281 1.219-.86v2.72Z"/><text x="77.5" y="32.78" fill="#D9B8FF" font-family="Helvetica" font-size="17" textLength="150">gcp_ssl_certificate</text><path fill="none" d="M139.5 147.01v53.31" style="stroke:#1a83af;stroke-width:2"/><path fill="#1A83AF" d="m139.5 205.2 4-9-4 4-4-4 4 9z" style="stroke:#1a83af;stroke-width:2"/><path fill="none" d="M139.5 47.22v53.31" style="stroke:#1a83af;stroke-width:2"/><path fill="#1A83AF" d="m139.5 105.41 4-9-4 4-4-4 4 9z" style="stroke:#1a83af;stroke-width:2"/></svg>
